src/icons/cv-with-text.svg

<svg width="168" height="56" viewBox="0 0 168 56" fill="none" xmlns="http://www.w3.org/2000/svg">
<rect width="168" height="56" fill="white"/>
<path d="M33.7431 44.4453L34.2639 44.7444C34.7947 45.0421 35.3933 45.1938 36 45.1841C36.5949 45.1876 37.1808 45.0362 37.7014 44.7444L38.2222 44.4453C46.4947 39.72 51.6157 30.8483 51.6249 21.2264V20.9801C51.6361 19.712 50.9728 18.5359 49.8888 17.9018L49.4735 17.665L35.9252 34.7259C35.6433 35.0809 35.1299 35.147 34.7673 34.875L27.0249 29.0682C26.655 28.7908 26.58 28.266 26.8574 27.8961L27.288 27.322C27.5654 26.9521 28.0902 26.8771 28.4601 27.1546L34.341 31.5653C34.7037 31.8373 35.217 31.7712 35.499 31.4161L47.3711 16.466L37.7361 10.9713C36.6618 10.3429 35.3382 10.3429 34.2639 10.9713L22.1112 17.9018C21.0272 18.5359 20.3639 19.712 20.3751 20.9801V21.2264C20.3772 30.8409 25.484 39.711 33.7431 44.4453Z" fill="url(#paint0_linear)"/>
<path d="M69.7193 19.2535C69.4061 16.9915 67.6661 15.679 65.409 15.679C62.7492 15.679 60.7456 17.6179 60.7456 20.9091C60.7456 24.1953 62.7243 26.1392 65.409 26.1392C67.8301 26.1392 69.4359 24.5731 69.7193 22.6292L67.86 22.6193C67.6263 23.8125 66.6519 24.4836 65.4338 24.4836C63.7832 24.4836 62.6 23.2457 62.6 20.9091C62.6 18.6122 63.7733 17.3345 65.4388 17.3345C66.6767 17.3345 67.6462 18.0355 67.86 19.2535H69.7193Z" fill="black"/>
<path d="M73.1286 21.5255C73.1286 20.4219 73.8147 19.7855 74.7792 19.7855C75.7238 19.7855 76.2806 20.3871 76.2806 21.4162V26H78.0803V21.1378C78.0803 19.2933 77.0363 18.2642 75.4503 18.2642C74.277 18.2642 73.5313 18.7961 73.1783 19.6612H73.0888V15.8182H71.3289V26H73.1286V21.5255Z" fill="black"/>
<path d="M82.1123 26.1541C83.3104 26.1541 84.0263 25.5923 84.3544 24.951H84.4141V26H86.1442V20.8892C86.1442 18.8707 84.4986 18.2642 83.0419 18.2642C81.4361 18.2642 80.2032 18.9801 79.8054 20.3721L81.4858 20.6108C81.6648 20.0888 82.1719 19.6413 83.0519 19.6413C83.8871 19.6413 84.3445 20.0689 84.3445 20.8196V20.8494C84.3445 21.3665 83.8026 21.3913 82.4553 21.5355C80.9738 21.6946 79.5569 22.1371 79.5569 23.8572C79.5569 25.3586 80.6556 26.1541 82.1123 26.1541ZM82.5796 24.8317C81.8289 24.8317 81.2919 24.4886 81.2919 23.8274C81.2919 23.1363 81.8935 22.848 82.6989 22.7336C83.1712 22.669 84.1158 22.5497 84.3495 22.3608V23.2606C84.3495 24.1108 83.6634 24.8317 82.5796 24.8317Z" fill="black"/>
<path d="M89.7536 21.5255C89.7536 20.4219 90.4198 19.7855 91.3694 19.7855C92.299 19.7855 92.8559 20.397 92.8559 21.4162V26H94.6556V21.1378C94.6606 19.3082 93.6165 18.2642 92.0405 18.2642C90.8971 18.2642 90.1115 18.8111 89.7635 19.6612H89.674V18.3636H87.9539V26H89.7536V21.5255Z" fill="black"/>
<path d="M99.8062 29.0227C101.869 29.0227 103.391 28.0781 103.391 26.1243V18.3636H101.616V19.6264H101.516C101.243 19.0746 100.671 18.2642 99.3239 18.2642C97.559 18.2642 96.1719 19.6463 96.1719 22.1569C96.1719 24.6477 97.559 25.8906 99.3189 25.8906C100.626 25.8906 101.238 25.1896 101.516 24.6278H101.606V26.0746C101.606 27.1981 100.86 27.6605 99.836 27.6605C98.7522 27.6605 98.2749 27.1484 98.0562 26.701L96.4354 27.0937C96.7635 28.1626 97.8623 29.0227 99.8062 29.0227ZM99.8211 24.4787C98.6329 24.4787 98.0064 23.554 98.0064 22.147C98.0064 20.7599 98.6229 19.7407 99.8211 19.7407C100.979 19.7407 101.616 20.7003 101.616 22.147C101.616 23.6037 100.97 24.4787 99.8211 24.4787Z" fill="black"/>
<path d="M108.616 26.1491C110.396 26.1491 111.619 25.2791 111.937 23.9517L110.256 23.7628C110.013 24.4091 109.416 24.7471 108.641 24.7471C107.477 24.7471 106.707 23.9815 106.692 22.674H112.011V22.1221C112.011 19.4424 110.401 18.2642 108.521 18.2642C106.334 18.2642 104.907 19.87 104.907 22.2265C104.907 24.6228 106.314 26.1491 108.616 26.1491ZM106.697 21.4609C106.751 20.4865 107.472 19.6662 108.546 19.6662C109.58 19.6662 110.276 20.4219 110.286 21.4609H106.697Z" fill="black"/>
<path d="M62.8486 30.8182H61.0041V41H62.8486V30.8182Z" fill="black"/>
<path d="M66.5661 36.5255C66.5661 35.4219 67.2323 34.7855 68.1819 34.7855C69.1116 34.7855 69.6684 35.397 69.6684 36.4162V41H71.4681V36.1378C71.4731 34.3082 70.429 33.2642 68.853 33.2642C67.7096 33.2642 66.9241 33.8111 66.576 34.6612H66.4866V33.3636H64.7664V41H66.5661V36.5255Z" fill="black"/>
<path d="M77.1108 33.3636H75.6044V31.5341H73.8047V33.3636H72.7209V34.7557H73.8047V39.0014C73.7948 40.4382 74.8388 41.1442 76.1911 41.1044C76.7032 41.0895 77.0562 40.99 77.25 40.9254L76.9468 39.5184C76.8473 39.5433 76.6435 39.588 76.4198 39.588C75.9674 39.588 75.6044 39.429 75.6044 38.7031V34.7557H77.1108V33.3636Z" fill="black"/>
<path d="M81.9146 41.1491C83.6945 41.1491 84.9175 40.2791 85.2357 38.9517L83.5553 38.7628C83.3117 39.4091 82.7151 39.7471 81.9395 39.7471C80.7761 39.7471 80.0055 38.9815 79.9906 37.674H85.3102V37.1221C85.3102 34.4424 83.6994 33.2642 81.8202 33.2642C79.6327 33.2642 78.2058 34.87 78.2058 37.2265C78.2058 39.6228 79.6128 41.1491 81.9146 41.1491ZM79.9956 36.4609C80.0503 35.4865 80.7712 34.6662 81.845 34.6662C82.8791 34.6662 83.5752 35.4219 83.5851 36.4609H79.9956Z" fill="black"/>
<path d="M88.6325 30.8182H86.8328V41H88.6325V30.8182Z" fill="black"/>
<path d="M92.2829 30.8182H90.4832V41H92.2829V30.8182Z" fill="black"/>
<path d="M94.1336 41H95.9333V33.3636H94.1336V41ZM95.0384 32.2798C95.6101 32.2798 96.0775 31.8423 96.0775 31.3054C96.0775 30.7635 95.6101 30.326 95.0384 30.326C94.4617 30.326 93.9944 30.7635 93.9944 31.3054C93.9944 31.8423 94.4617 32.2798 95.0384 32.2798Z" fill="black"/>
<path d="M101.105 44.0227C103.168 44.0227 104.689 43.0781 104.689 41.1243V33.3636H102.915V34.6264H102.815C102.542 34.0746 101.97 33.2642 100.623 33.2642C98.8578 33.2642 97.4707 34.6463 97.4707 37.1569C97.4707 39.6477 98.8578 40.8906 100.618 40.8906C101.925 40.8906 102.537 40.1896 102.815 39.6278H102.905V41.0746C102.905 42.1981 102.159 42.6605 101.135 42.6605C100.051 42.6605 99.5737 42.1484 99.355 41.701L97.7342 42.0937C98.0624 43.1626 99.1611 44.0227 101.105 44.0227ZM101.12 39.4787C99.9317 39.4787 99.3053 38.554 99.3053 37.147C99.3053 35.7599 99.9217 34.7407 101.12 34.7407C102.278 34.7407 102.915 35.7003 102.915 37.147C102.915 38.6037 102.268 39.4787 101.12 39.4787Z" fill="black"/>
<path d="M109.915 41.1491C111.694 41.1491 112.917 40.2791 113.236 38.9517L111.555 38.7628C111.312 39.4091 110.715 39.7471 109.939 39.7471C108.776 39.7471 108.006 38.9815 107.991 37.674H113.31V37.1221C113.31 34.4424 111.699 33.2642 109.82 33.2642C107.633 33.2642 106.206 34.87 106.206 37.2265C106.206 39.6228 107.613 41.1491 109.915 41.1491ZM107.996 36.4609C108.05 35.4865 108.771 34.6662 109.845 34.6662C110.879 34.6662 111.575 35.4219 111.585 36.4609H107.996Z" fill="black"/>
<path d="M116.632 36.5255C116.632 35.4219 117.299 34.7855 118.248 34.7855C119.178 34.7855 119.735 35.397 119.735 36.4162V41H121.534V36.1378C121.539 34.3082 120.495 33.2642 118.919 33.2642C117.776 33.2642 116.99 33.8111 116.642 34.6612H116.553V33.3636H114.833V41H116.632V36.5255Z" fill="black"/>
<path d="M126.695 41.1491C128.614 41.1491 129.837 40.0106 129.966 38.3899H128.246C128.092 39.2102 127.5 39.6825 126.71 39.6825C125.586 39.6825 124.86 38.7429 124.86 37.1818C124.86 35.6406 125.601 34.7159 126.71 34.7159C127.575 34.7159 128.107 35.2727 128.246 36.0085H129.966C129.842 34.353 128.549 33.2642 126.685 33.2642C124.448 33.2642 123.036 34.8799 123.036 37.2116C123.036 39.5234 124.413 41.1491 126.695 41.1491Z" fill="black"/>
<path d="M134.825 41.1491C136.605 41.1491 137.828 40.2791 138.146 38.9517L136.465 38.7628C136.222 39.4091 135.625 39.7471 134.85 39.7471C133.686 39.7471 132.916 38.9815 132.901 37.674H138.22V37.1221C138.22 34.4424 136.61 33.2642 134.73 33.2642C132.543 33.2642 131.116 34.87 131.116 37.2265C131.116 39.6228 132.523 41.1491 134.825 41.1491ZM132.906 36.4609C132.96 35.4865 133.681 34.6662 134.755 34.6662C135.789 34.6662 136.485 35.4219 136.495 36.4609H132.906Z" fill="black"/>
<defs>
<linearGradient id="paint0_linear" x1="25.7837" y1="10.5" x2="44.7702" y2="43.5719" gradientUnits="userSpaceOnUse">
<stop stop-color="#BEA1FF"/>
<stop offset="1" stop-color="#8A36FF"/>
</linearGradient>
</defs>
</svg>

<svg width="168" height="56" fill="none" xmlns="http://www.w3.org/2000/svg"><path fill="#fff" d="M0 0h168v56H0z"/><path d="M33.743 44.445l.52.3c.532.297 1.13.449 1.737.44a3.438 3.438 0 001.701-.44l.521-.3c8.273-4.725 13.394-13.597 13.403-23.219v-.246a3.527 3.527 0 00-1.736-3.078l-.416-.237-13.548 17.06a.837.837 0 01-1.158.15l-7.742-5.807a.837.837 0 01-.168-1.172l.431-.574a.837.837 0 011.172-.167l5.881 4.41a.837.837 0 001.158-.149l11.872-14.95-9.635-5.495a3.433 3.433 0 00-3.472 0l-12.153 6.93a3.527 3.527 0 00-1.736 3.08v.245c.002 9.615 5.109 18.485 13.368 23.22z" fill="url(#paint0_linear)"/><path d="M69.72 19.253c-.314-2.262-2.054-3.574-4.311-3.574-2.66 0-4.663 1.939-4.663 5.23 0 3.286 1.978 5.23 4.663 5.23 2.421 0 4.027-1.566 4.31-3.51l-1.859-.01c-.234 1.194-1.208 1.865-2.426 1.865-1.65 0-2.834-1.238-2.834-3.575 0-2.297 1.173-3.575 2.839-3.575 1.238 0 2.207.701 2.421 1.92h1.86zM73.129 21.526c0-1.104.686-1.74 1.65-1.74.945 0 1.502.601 1.502 1.63V26h1.8v-4.862c0-1.845-1.045-2.874-2.63-2.874-1.174 0-1.92.532-2.273 1.397h-.09v-3.843h-1.76V26h1.8v-4.474zM82.112 26.154c1.198 0 1.914-.562 2.242-1.203h.06V26h1.73v-5.11c0-2.02-1.645-2.626-3.102-2.626-1.606 0-2.839.716-3.237 2.108l1.68.239c.18-.522.687-.97 1.567-.97.835 0 1.292.428 1.292 1.179v.03c0 .516-.541.541-1.889.685-1.481.16-2.898.602-2.898 2.322 0 1.502 1.099 2.297 2.555 2.297zm.468-1.322c-.751 0-1.288-.343-1.288-1.005 0-.69.602-.979 1.407-1.093.472-.065 1.417-.184 1.65-.373v.9c0 .85-.686 1.57-1.77 1.57zM89.754 21.526c0-1.104.666-1.74 1.615-1.74.93 0 1.487.611 1.487 1.63V26h1.8v-4.862c.005-1.83-1.04-2.874-2.616-2.874-1.143 0-1.928.547-2.277 1.397h-.089v-1.297h-1.72V26h1.8v-4.474zM99.806 29.023c2.063 0 3.585-.945 3.585-2.899v-7.76h-1.775v1.262h-.1c-.273-.551-.845-1.362-2.192-1.362-1.765 0-3.152 1.382-3.152 3.893 0 2.49 1.387 3.734 3.147 3.734 1.307 0 1.919-.701 2.197-1.263h.09v1.447c0 1.123-.746 1.585-1.77 1.585-1.084 0-1.561-.512-1.78-.959l-1.62.393c.327 1.069 1.426 1.929 3.37 1.929zm.015-4.544c-1.188 0-1.815-.925-1.815-2.332 0-1.387.617-2.406 1.815-2.406 1.158 0 1.795.96 1.795 2.406 0 1.457-.646 2.332-1.795 2.332zM108.616 26.15c1.78 0 3.003-.87 3.321-2.198l-1.681-.19c-.243.647-.84.985-1.615.985-1.164 0-1.934-.765-1.949-2.073h5.319v-.552c0-2.68-1.61-3.858-3.49-3.858-2.187 0-3.614 1.606-3.614 3.963 0 2.396 1.407 3.922 3.709 3.922zm-1.919-4.69c.054-.974.775-1.794 1.849-1.794 1.034 0 1.73.756 1.74 1.795h-3.589zM62.849 30.818h-1.845V41h1.845V30.818zM66.566 36.526c0-1.104.666-1.74 1.616-1.74.93 0 1.486.611 1.486 1.63V41h1.8v-4.862c.005-1.83-1.039-2.874-2.615-2.874-1.143 0-1.929.547-2.277 1.397h-.09v-1.297h-1.72V41h1.8v-4.474zM77.11 33.364h-1.506v-1.83h-1.8v1.83h-1.083v1.392h1.084V39c-.01 1.437 1.034 2.143 2.386 2.103a3.616 3.616 0 001.059-.179l-.303-1.407c-.1.025-.303.07-.527.07-.453 0-.816-.159-.816-.885v-3.947h1.507v-1.392zM81.915 41.15c1.78 0 3.002-.87 3.32-2.198l-1.68-.19c-.243.647-.84.985-1.616.985-1.163 0-1.933-.766-1.948-2.073h5.32v-.552c0-2.68-1.612-3.858-3.49-3.858-2.188 0-3.615 1.606-3.615 3.962 0 2.397 1.407 3.923 3.709 3.923zm-1.92-4.69c.055-.974.776-1.794 1.85-1.794 1.034 0 1.73.756 1.74 1.795h-3.59zM88.632 30.818h-1.8V41h1.8V30.818zM92.283 30.818h-1.8V41h1.8V30.818zM94.134 41h1.8v-7.636h-1.8V41zm.904-8.72c.572 0 1.04-.438 1.04-.975 0-.541-.468-.979-1.04-.979-.576 0-1.044.438-1.044.98 0 .536.468.974 1.044.974zM101.105 44.023c2.063 0 3.584-.945 3.584-2.899v-7.76h-1.774v1.262h-.1c-.273-.551-.845-1.362-2.192-1.362-1.765 0-3.152 1.382-3.152 3.893 0 2.49 1.387 3.734 3.147 3.734 1.307 0 1.919-.701 2.197-1.263h.09v1.447c0 1.123-.746 1.585-1.77 1.585-1.084 0-1.561-.512-1.78-.959l-1.62.393c.327 1.069 1.426 1.929 3.37 1.929zm.015-4.544c-1.188 0-1.815-.925-1.815-2.332 0-1.387.617-2.406 1.815-2.406 1.158 0 1.795.96 1.795 2.406 0 1.457-.647 2.332-1.795 2.332zM109.915 41.15c1.779 0 3.002-.87 3.321-2.198l-1.681-.19c-.243.647-.84.985-1.616.985-1.163 0-1.933-.766-1.948-2.073h5.319v-.552c0-2.68-1.611-3.858-3.49-3.858-2.187 0-3.614 1.606-3.614 3.962 0 2.397 1.407 3.923 3.709 3.923zm-1.919-4.69c.054-.974.775-1.794 1.849-1.794 1.034 0 1.73.756 1.74 1.795h-3.589zM116.632 36.526c0-1.104.667-1.74 1.616-1.74.93 0 1.487.611 1.487 1.63V41h1.799v-4.862c.005-1.83-1.039-2.874-2.615-2.874-1.143 0-1.929.547-2.277 1.397h-.089v-1.297h-1.72V41h1.799v-4.474zM126.695 41.15c1.919 0 3.142-1.14 3.271-2.76h-1.72c-.154.82-.746 1.292-1.536 1.292-1.124 0-1.85-.94-1.85-2.5 0-1.541.741-2.466 1.85-2.466.865 0 1.397.557 1.536 1.292h1.72c-.124-1.655-1.417-2.744-3.281-2.744-2.237 0-3.649 1.616-3.649 3.948 0 2.311 1.377 3.937 3.659 3.937zM134.825 41.15c1.78 0 3.003-.87 3.321-2.198l-1.681-.19c-.243.647-.84.985-1.615.985-1.164 0-1.934-.766-1.949-2.073h5.319v-.552c0-2.68-1.61-3.858-3.49-3.858-2.187 0-3.614 1.606-3.614 3.962 0 2.397 1.407 3.923 3.709 3.923zm-1.919-4.69c.054-.974.775-1.794 1.849-1.794 1.034 0 1.73.756 1.74 1.795h-3.589z" fill="#000"/><defs><linearGradient id="paint0_linear" x1="25.784" y1="10.5" x2="44.77" y2="43.572" gradientUnits="userSpaceOnUse"><stop stop-color="#BEA1FF"/><stop offset="1" stop-color="#8A36FF"/></linearGradient></defs></svg>
